img/manaSymbols/outline/outline4.svg

﻿<?xml version="1.0" encoding="utf-8"?>
<svg width="660" height="660" version="1.1" xmlns="http://www.w3.org/2000/svg" xml:space="preserve" style="fill-rule: evenodd; clip-rule: evenodd; stroke-linejoin: round; stroke-miterlimit: 2;" preserveAspectRatio="xMidYMid meet" zoomAndPan="magnify" contentScriptType="application/ecmascript" contentStyleType="text/css">
  <path d="M300-30C117.868-30-30 117.868-30 300s147.868 330 330 330 330-147.868 330-330S482.132-30 300-30zm0 30c165.575 0 300 134.425 300 300S465.575 600 300 600 0 465.575 0 300 134.425 0 300 0z" transform="matrix(1,0,0,1,30,30)" />
  <path d="m295 351 1-195-132 195m-51 47-1-47L310 63h66v288c19 0 31-30 33-44h38l-13 90h-57v44c0 27 11 43 37 43h20v39H237l1-39h24c17 0 36-11 35-45v-43" style="fill-rule: nonzero;" transform="matrix(1,0,0,1,30,30)" />
</svg>

<?xml version="1.0" encoding="UTF-8" standalone="no"?>
<!DOCTYPE svg PUBLIC "-//W3C//DTD SVG 1.1//EN" "http://www.w3.org/Graphics/SVG/1.1/DTD/svg11.dtd">
<svg width="660" height="660" version="1.1" xmlns="http://www.w3.org/2000/svg" xmlns:xlink="http://www.w3.org/1999/xlink" xml:space="preserve" xmlns:serif="http://www.serif.com/" style="fill-rule:evenodd;clip-rule:evenodd;stroke-linejoin:round;stroke-miterlimit:2;">
    <g transform="matrix(1,0,0,1,30,30)">
        <path d="M300,-30C117.868,-30 -30,117.868 -30,300C-30,482.132 117.868,630 300,630C482.132,630 630,482.132 630,300C630,117.868 482.132,-30 300,-30ZM300,0C465.575,0 600,134.425 600,300C600,465.575 465.575,600 300,600C134.425,600 0,465.575 0,300C0,134.425 134.425,0 300,0Z"/>
    </g>
    <g transform="matrix(1,0,0,1,30,30)">
        <path d="M295,351L296,156L164,351M113,398L112,351L310,63L376,63L376,351C395,351 407,321 409,307L447,307L434,397L377,397L377,441C377,468 388,484 414,484L434,484L434,523L237,523L238,484L262,484C279,484 298,473 297,439L297,396" style="fill-rule:nonzero;"/>
    </g>
</svg>
